X: 7441
T: Cluain Ard
R: reel
M: 4/4
K: Dmajor
|:A2FD ADBD|ADFD EGFE|DAFA BAFa|1 egfe dedB:|2 egfe d2dB||
Adfd adfd|egfe dBAF|Adfd adfd|egfe d2dB|
Adfd adfd|egfe dBAB|defg afdf|egfe dedB||

